src/topics/icons/forever.svg

<svg height="127" preserveAspectRatio="xMidYMid" viewBox="0 0 256 127" width="256" xmlns="http://www.w3.org/2000/svg"><path d="m0 63.2098765c0-17.3241883 6.20393233-32.1902149 18.611797-44.5980795 12.4078646-12.40786467 27.2738912-18.611797 44.5980795-18.611797 17.3241884 0 32.1902149 6.20393233 44.5980795 18.611797l20.367627 19.3141289 20.367627-19.6652949c12.173754-12.173754 26.922725-18.260631 44.246913-18.260631 17.090078 0 31.897577 6.20393233 44.422497 18.611797 12.52492 12.4078646 18.78738 27.2738912 18.78738 44.5980795 0 17.3241884-6.26246 32.1902149-18.78738 44.5980795-12.52492 12.407865-27.332419 18.611797-44.422497 18.611797-17.324188 0-32.190214-6.203932-44.598079-18.611797l-20.016461-19.3141288-20.718793 19.6652948c-12.1737539 12.173754-26.9227251 18.260631-44.2469135 18.260631-17.3241883 0-32.1902149-6.203932-44.5980795-18.611797-12.40786467-12.4078646-18.611797-27.2738911-18.611797-44.5980795zm63.2098765-26.6886145c-7.2574302 0-13.5198902 2.6337449-18.7873799 7.9012346s-7.9012346 11.5299497-7.9012346 18.7873799c0 7.491541 2.5752172 13.8125286 7.7256516 18.962963s11.471422 7.7256516 18.9629629 7.7256516c7.491541 0 13.8125286-2.5752172 18.962963-7.7256516l19.3141285-18.962963-19.3141285-18.6117969c-5.384545-5.3845451-11.7055327-8.0768176-18.962963-8.0768176zm148.5432095 45.6515775c5.150435-5.1504344 7.725652-11.471422 7.725652-18.962963 0-7.4915409-2.575217-13.8125285-7.725652-18.9629629-5.150434-5.1504344-11.412894-7.7256516-18.78738-7.7256516-7.374485 0-13.636945 2.5752172-18.78738 7.7256516l-19.665294 18.9629629 19.314128 18.611797c5.150435 5.1504344 11.471423 7.7841793 18.962963 7.9012346 7.491541.1170553 13.812529-2.3996342 18.962963-7.5500686z"/></svg>

<?xml version="1.0" encoding="UTF-8" standalone="no" ?>
<svg width="256px" height="127px" viewBox="0 0 256 127" version="1.1" xmlns="http://www.w3.org/2000/svg" xmlns:xlink="http://www.w3.org/1999/xlink" preserveAspectRatio="xMidYMid">
    <g>
        <path d="M0,63.2098765 C0,45.8856882 6.20393233,31.0196616 18.611797,18.611797 C31.0196616,6.20393233 45.8856882,0 63.2098765,0 C80.5340649,0 95.4000914,6.20393233 107.807956,18.611797 L128.175583,37.9259259 L148.54321,18.260631 C160.716964,6.086877 175.465935,0 192.790123,0 C209.880201,0 224.6877,6.20393233 237.21262,18.611797 C249.73754,31.0196616 256,45.8856882 256,63.2098765 C256,80.5340649 249.73754,95.4000914 237.21262,107.807956 C224.6877,120.215821 209.880201,126.419753 192.790123,126.419753 C175.465935,126.419753 160.599909,120.215821 148.192044,107.807956 L128.175583,88.4938272 L107.45679,108.159122 C95.2830361,120.332876 80.5340649,126.419753 63.2098765,126.419753 C45.8856882,126.419753 31.0196616,120.215821 18.611797,107.807956 C6.20393233,95.4000914 0,80.5340649 0,63.2098765 L0,63.2098765 Z M63.2098765,36.521262 C55.9524463,36.521262 49.6899863,39.1550069 44.4224966,44.4224966 C39.1550069,49.6899863 36.521262,55.9524463 36.521262,63.2098765 C36.521262,70.7014175 39.0964792,77.0224051 44.2469136,82.1728395 C49.397348,87.3232739 55.7183356,89.8984911 63.2098765,89.8984911 C70.7014175,89.8984911 77.0224051,87.3232739 82.1728395,82.1728395 L101.486968,63.2098765 L82.1728395,44.5980796 C76.7882945,39.2135345 70.4673068,36.521262 63.2098765,36.521262 L63.2098765,36.521262 Z M211.753086,82.1728395 C216.903521,77.0224051 219.478738,70.7014175 219.478738,63.2098765 C219.478738,55.7183356 216.903521,49.397348 211.753086,44.2469136 C206.602652,39.0964792 200.340192,36.521262 192.965706,36.521262 C185.591221,36.521262 179.328761,39.0964792 174.178326,44.2469136 L154.513032,63.2098765 L173.82716,81.8216735 C178.977595,86.9721079 185.298583,89.6058528 192.790123,89.7229081 C200.281664,89.8399634 206.602652,87.3232739 211.753086,82.1728395 L211.753086,82.1728395 Z" fill="#000000"></path>
    </g>
</svg>
